site/img/logos/manfred.svg

<?xml version="1.0" encoding="UTF-8"?>
<svg width="600px" height="400px" viewBox="0 0 600 400" version="1.1" xmlns="http://www.w3.org/2000/svg" xmlns:xlink="http://www.w3.org/1999/xlink">
    <title>logos/manfred</title>
    <g id="logos/manfred" stroke="none" stroke-width="1" fill="none" fill-rule="evenodd">
        <path d="M159.607921,177.355333 C168.734302,177.355333 173.344832,179.992415 178.492797,185.266655 L179.205146,186.009425 L179.205146,186.009425 L179.205146,182.925771 C179.205146,181.878932 179.560395,181.022441 180.270903,180.356272 C180.981412,179.690102 181.810325,179.357022 182.75767,179.357022 L198.815074,179.357022 C199.857153,179.357022 200.70975,179.690102 201.372891,180.356272 C202.036032,181.022441 202.367597,181.878932 202.367597,182.925771 L202.367597,250.435723 C202.367597,251.387394 202.036032,252.220094 201.372891,252.933847 C200.70975,253.647601 199.857153,254.004472 198.815074,254.004472 L182.75767,254.004472 C181.810325,254.004472 180.981412,253.647601 180.270903,252.933847 C179.560395,252.220094 179.205146,251.387394 179.205146,250.435723 L179.205146,246.752226 C174.010668,252.260433 169.322297,255.014495 159.607921,255.014495 C149.80529,255.014495 142.278382,252.210164 137.026972,246.601419 C132.003885,241.236532 129.169641,233.70068 128.524166,223.993654 L128.449713,222.656511 C128.395254,221.784039 128.359856,220.465281 128.343518,218.700213 L128.333015,216.184914 L128.343518,213.669614 C128.357522,212.156699 128.385529,210.971685 128.42754,210.114557 L128.449713,209.713317 C128.916505,199.550462 131.85336,191.616843 137.260367,185.912222 C142.667374,180.207601 150.116484,177.355333 159.607921,177.355333 Z M593.305538,148.659049 C594.34757,148.659049 595.223811,148.992115 595.934289,149.658255 C596.644766,150.324396 597,151.180849 597,152.227642 L597,249.934244 C597,250.981036 596.644766,251.83749 595.934289,252.50363 C595.223811,253.169771 594.34757,253.502836 593.305538,253.502836 L576.396266,253.502836 C575.448966,253.502836 574.620087,253.14598 573.90961,252.432259 C573.199132,251.718537 572.843902,250.885873 572.843902,249.934244 L572.843902,245.509189 C567.728464,251.789943 560.386979,254.930273 550.819222,254.930273 C541.630386,254.930273 534.407309,252.027847 529.149781,246.222908 C523.892249,240.417969 521.074068,232.138917 520.695145,221.385505 L520.553051,216.389475 L520.695145,211.250702 C521.074068,200.877942 523.915932,192.717843 529.220829,186.770159 C534.525724,180.822475 541.725114,177.848678 550.819222,177.848678 C559.344947,177.848678 566.212787,180.608362 571.422953,186.127812 L571.422953,152.227642 C571.422953,151.180849 571.778187,150.324396 572.488664,149.658255 C573.199142,148.992115 574.028017,148.659049 574.975321,148.659049 L593.305538,148.659049 Z M471.498704,177.646716 C479.645864,177.646716 486.537693,179.288324 492.17439,182.571589 C497.811087,185.854854 502.026707,190.375224 504.821373,196.132834 C507.616039,201.890444 509.013348,208.433085 509.013348,215.760952 L509.013348,219.329701 C509.013348,220.376539 508.658101,221.256822 507.947593,221.970575 C507.237085,222.684328 506.360803,223.0412 505.318725,223.0412 L460.272733,223.0412 L460.272733,223.897699 C460.367468,228.180219 461.362164,231.629975 463.256851,234.247071 C465.151539,236.864166 467.851429,238.172694 471.356603,238.172694 C473.630231,238.172694 475.453839,237.720658 476.827489,236.81657 C477.926409,236.0933 478.979843,235.202547 479.987812,234.144293 L480.735265,233.319196 C481.587874,232.367525 482.274689,231.77274 482.79573,231.534822 C483.316768,231.296904 484.14568,231.177947 485.282494,231.177947 L503.897716,231.177947 C504.750324,231.177947 505.484505,231.439653 506.100281,231.963071 C506.716054,232.486491 507.023935,233.128859 507.023935,233.890196 C507.023935,236.364541 505.626626,239.267094 502.83196,242.597943 C500.037295,245.928792 495.963775,248.783762 490.61128,251.16294 C485.258784,253.542118 478.935357,254.731688 471.640805,254.731688 C460.083205,254.731688 450.988838,251.615012 444.357428,245.381567 C437.726018,239.148121 434.31563,230.08359 434.126164,218.187701 L434.126164,213.762453 C434.5051,202.437567 438.01022,193.587159 444.64163,187.210963 C451.27304,180.834766 460.22531,177.646716 471.498704,177.646716 Z M91.6709769,177.929522 C99.4391998,177.929522 105.762628,180.57037 110.64145,185.852144 C115.520273,191.133919 117.959648,199.008879 117.959648,209.477261 L117.959648,250.435723 C117.959648,251.387394 117.628082,252.220094 116.964941,252.933847 C116.3018,253.647601 115.449203,254.004472 114.407125,254.004472 L96.9287112,254.004472 C95.8866327,254.004472 95.0103524,253.671392 94.2998442,253.005222 C93.589336,252.339052 93.2340871,251.482561 93.2340871,250.435723 L93.2340871,210.476511 C93.2340871,206.098824 92.3104403,202.886982 90.4631192,200.840889 C88.6157978,198.794796 86.1290566,197.771765 83.0028206,197.771765 C80.0660535,197.771765 77.6740453,198.794796 75.8267238,200.840889 C73.9794027,202.886982 73.0557559,206.098824 73.0557559,210.476511 L73.0557559,220.072891 C73.0557559,221.631917 71.7953448,222.895757 70.2405488,222.895757 L51.1454021,222.895757 C49.5906061,222.895757 48.330195,221.631917 48.330195,220.072891 L48.330195,210.476511 C48.330195,206.098824 47.3828649,202.886982 45.4881763,200.840889 C43.593488,198.794796 41.13043,197.771765 38.0989285,197.771765 C35.1621613,197.771765 32.7464697,198.794796 30.8517812,200.840889 C28.9570928,202.886982 28.0097627,206.051241 28.0097627,210.333761 L28.0097627,220.072891 C28.0097627,221.631917 26.7493516,222.895757 25.1945558,222.895757 L5.815207,222.895757 C4.26041111,222.895757 3,221.631917 3,220.072891 L3,182.925771 C3,181.878932 3.35524876,181.022441 4.06575694,180.356272 C4.77626511,179.690102 5.60517888,179.357022 6.55252312,179.357022 L23.0362304,179.357022 C24.078309,179.357022 24.930906,179.690102 25.594047,180.356272 C26.257188,181.022441 26.5887535,181.878932 26.5887535,182.925771 L26.5887535,187.779269 C28.8623797,185.019423 31.7991027,182.687863 35.3990108,180.784521 C38.9989189,178.881179 43.0724382,177.929522 47.6196905,177.929522 C58.0404768,177.929522 65.1928184,182.021647 69.0769301,190.206018 C71.3505562,186.589668 74.5241117,183.639532 78.5976921,181.355521 C82.6712721,179.071511 87.0289902,177.929522 91.6709769,177.929522 Z M267.30772,177.929522 C272.707582,177.929522 277.515282,179.166676 281.730964,181.641021 C285.946646,184.115366 289.262301,187.779245 291.678028,192.632767 C294.093756,197.48629 295.301602,203.338979 295.301602,210.191011 L295.301602,250.435723 C295.301602,251.387394 294.970037,252.220094 294.306896,252.933847 C293.643755,253.647601 292.791158,254.004472 291.749079,254.004472 L272.849656,254.004472 C271.807577,254.004472 270.931297,253.671392 270.220789,253.005222 C269.51028,252.339052 269.155032,251.482561 269.155032,250.435723 L269.155032,211.047511 C269.155032,206.764991 268.136652,203.481775 266.099862,201.197764 C264.063072,198.913753 261.102666,197.771765 257.218554,197.771765 C253.429177,197.771765 250.445088,198.937545 248.266196,201.269139 C246.087304,203.600733 244.997875,206.860158 244.997875,211.047511 L244.997875,220.072891 C244.997875,221.631917 243.737463,222.895757 242.182668,222.895757 L221.808613,222.895757 C220.253817,222.895757 218.993405,221.631917 218.993405,220.072891 L218.993405,182.925771 C218.993405,181.878932 219.348654,181.022441 220.059162,180.356272 C220.76967,179.690102 221.598584,179.357022 222.545929,179.357022 L240.024342,179.357022 C241.066421,179.357022 241.919018,179.690102 242.582159,180.356272 C243.2453,181.022441 243.576866,181.878932 243.576866,182.925771 L243.576866,188.350269 C246.134695,185.209754 249.426667,182.687863 253.45288,180.784521 C257.479093,178.881179 262.097327,177.929522 267.30772,177.929522 Z M361.520633,147.952033 C362.562712,147.952033 363.43899,148.285113 364.149498,148.951283 C364.86001,149.617452 365.215257,150.473944 365.215257,151.520782 L365.215257,163.797277 C365.215257,164.844116 364.86001,165.700607 364.149498,166.366777 C363.43899,167.032946 362.562712,167.366026 361.520633,167.366026 L351.431466,167.366026 C348.399965,167.366026 346.244788,168.055977 344.965873,169.4359 C343.686962,170.815824 343.047513,172.93326 343.047513,175.788273 L343.047513,179.357022 L360.099624,179.357022 C361.141703,179.357022 362.017981,179.690102 362.728489,180.356272 C363.438997,181.022441 363.794248,181.878932 363.794248,182.925771 L363.794248,195.202266 C363.794248,196.249104 363.438997,197.105596 362.728489,197.771765 C362.017981,198.437935 361.141703,198.771015 360.099624,198.771015 L343.047513,198.771015 L343.047513,250.435723 C343.047513,251.387394 342.715949,252.220094 342.052807,252.933847 C341.389665,253.647601 340.537069,254.004472 339.494991,254.004472 L322.158677,254.004472 C321.116598,254.004472 320.240318,253.671392 319.52981,253.005222 C318.819302,252.339052 318.464053,251.482561 318.464053,250.435723 L318.464053,198.771015 L307.806483,198.771015 C306.764405,198.771015 305.888124,198.437935 305.177616,197.771765 C304.467108,197.105596 304.111859,196.249104 304.111859,195.202266 L304.111859,182.925771 C304.111859,181.878932 304.467108,181.022441 305.177616,180.356272 C305.888124,179.690102 306.764405,179.357022 307.806483,179.357022 L318.464053,179.357022 L318.464053,175.074523 C318.464053,165.557813 321.21131,158.658301 326.705906,154.375781 C332.200503,150.093261 340.063344,147.952033 350.294659,147.952033 L361.520633,147.952033 Z M395.628225,231.379952 C397.183019,231.379952 398.443433,232.643791 398.443433,234.202816 L398.443433,251.181607 C398.443433,252.740632 397.183019,254.004472 395.628225,254.004472 L375.288354,254.004472 C373.733556,254.004472 372.473146,252.740632 372.473146,251.181607 L372.473146,234.202816 C372.473146,232.643791 373.733556,231.379952 375.288354,231.379952 L395.628225,231.379952 Z M242.185353,231.379952 C243.740149,231.379952 245.00056,232.643791 245.00056,234.202816 L245.00056,251.181607 C245.00056,252.740632 243.740149,254.004472 242.185353,254.004472 L221.803255,254.004472 C220.248459,254.004472 218.988048,252.740632 218.988048,251.181607 L218.988048,234.202816 C218.988048,232.643791 220.248459,231.379952 221.803255,231.379952 L242.185353,231.379952 Z M70.2606494,231.379952 C71.8154454,231.379952 73.0758565,232.643791 73.0758565,234.202816 L73.0758565,251.181607 C73.0758565,252.740632 71.8154454,254.004472 70.2606494,254.004472 L51.1172412,254.004472 C49.5624455,254.004472 48.3020344,252.740632 48.3020344,251.181607 L48.3020344,234.202816 C48.3020344,232.643791 49.5624455,231.379952 51.1172412,231.379952 L70.2606494,231.379952 Z M25.2032719,231.379952 C26.7580677,231.379952 28.0184788,232.643791 28.0184788,234.202816 L28.0184788,251.181607 C28.0184788,252.740632 26.7580677,254.004472 25.2032719,254.004472 L5.82057101,254.004472 C4.26577512,254.004472 3.00536402,252.740632 3.00536402,251.181607 L3.00536402,234.202816 C3.00536402,232.643791 4.26577512,231.379952 5.82057101,231.379952 L25.2032719,231.379952 Z M163.857718,195.475804 C159.944674,195.475804 157.033795,196.722173 155.124994,199.214949 C153.216192,201.707724 152.118648,205.446832 151.832328,210.432383 L151.689168,216.184914 L151.832328,221.937444 C152.118648,227.018872 153.216192,230.781948 155.124994,233.226785 C157.033795,235.671623 159.944674,236.894024 163.857718,236.894024 C167.770761,236.894024 170.681639,235.671623 172.590441,233.226785 C174.3629,230.956579 175.435856,227.549729 175.809337,223.006143 L175.934645,221.24714 C175.980456,220.441788 176.009088,219.291288 176.02054,217.795628 L176.02054,214.5742 C176.007179,212.829264 175.970435,211.554128 175.910308,210.748773 L175.883108,210.432383 C175.596787,205.446832 174.499243,201.707724 172.590441,199.214949 C170.681639,196.722173 167.770761,195.475804 163.857718,195.475804 Z M559.060715,197.690052 C554.797853,197.690052 551.742846,198.950942 549.895605,201.472759 C548.048367,203.994577 546.982666,207.491763 546.698474,211.964421 L546.55638,216.389475 L546.698474,220.81453 C546.982666,225.287188 548.048367,228.784374 549.895605,231.306192 C551.742846,233.82801 554.797853,235.0889 559.060715,235.0889 C563.134118,235.0889 566.165438,233.780429 568.154777,231.163448 C569.978334,228.764549 571.04568,225.785958 571.35684,222.227597 L571.604834,218.4564 C571.673039,217.268774 571.707141,216.389478 571.707141,215.818501 L571.675565,214.533808 C571.654514,214.026276 571.622938,213.439443 571.580836,212.773306 L571.422953,210.536984 C571.233493,206.825629 570.120429,203.75667 568.083728,201.330016 C566.047027,198.903361 563.039386,197.690052 559.060715,197.690052 Z M393.351238,179.357022 C394.393317,179.357022 395.269599,179.713893 395.980107,180.427647 C396.690615,181.1414 397.045865,182.021682 397.045865,183.068521 L397.045865,188.493018 C399.698426,185.542838 402.800933,183.282653 406.353476,181.712396 C409.906015,180.142139 413.861117,179.357022 418.218903,179.357022 L424.613443,179.357022 C425.655522,179.357022 426.508121,179.690102 427.171259,180.356272 C427.834401,181.022441 428.165966,181.878932 428.165966,182.925771 L428.165966,198.485515 C428.165966,199.437186 427.834401,200.269886 427.171259,200.983639 C426.508121,201.697393 425.655522,202.054264 424.613443,202.054264 L410.261249,202.054264 C406.471874,202.054264 403.558834,203.101086 401.522042,205.194763 C399.485253,207.288439 398.466874,210.238575 398.466874,214.04526 L398.466874,220.072891 C398.466874,221.631917 397.206464,222.895757 395.651666,222.895757 L375.277611,222.895757 C373.722816,222.895757 372.462403,221.631917 372.462403,220.072891 L372.462403,183.068521 C372.462403,182.021682 372.79397,181.1414 373.457109,180.427647 C374.120251,179.713893 374.97285,179.357022 376.014929,179.357022 L393.351238,179.357022 Z M471.498704,193.77746 C467.898798,193.77746 465.127856,195.038405 463.185803,197.560334 C461.393135,199.888268 460.427865,203.087864 460.289969,207.159208 L460.272733,208.480705 L482.866779,208.480705 L482.866779,208.195205 C482.866779,203.627184 481.872083,200.082262 479.88266,197.560334 C477.893237,195.038405 475.098612,193.77746 471.498704,193.77746 Z" id="Shape" fill="#FFFFFF" fill-rule="nonzero"></path>
    </g>
</svg>

<svg width="600" height="400" viewBox="0 0 600 400" xmlns="http://www.w3.org/2000/svg"><path d="M159.608 177.355c9.126 0 13.737 2.637 18.885 7.912l.712.742v-3.083c0-1.047.355-1.904 1.066-2.57.71-.666 1.54-.999 2.487-.999h16.057c1.042 0 1.895.333 2.558 1 .663.665.995 1.522.995 2.569v67.51c0 .951-.332 1.784-.995 2.498-.663.714-1.516 1.07-2.558 1.07h-16.057c-.948 0-1.777-.356-2.487-1.07-.71-.714-1.066-1.547-1.066-2.498v-3.684c-5.194 5.508-9.883 8.262-19.597 8.262-9.803 0-17.33-2.804-22.581-8.413-5.023-5.364-7.857-12.9-8.503-22.607l-.074-1.337c-.055-.873-.09-2.192-.106-3.957l-.011-2.515.01-2.515a96.9 96.9 0 01.085-3.555l.022-.402c.467-10.163 3.403-18.096 8.81-23.8 5.407-5.705 12.856-8.558 22.348-8.558zm433.698-28.696c1.042 0 1.918.333 2.628 1 .71.665 1.066 1.522 1.066 2.569v97.706c0 1.047-.355 1.903-1.066 2.57-.71.666-1.586.999-2.628.999h-16.91c-.947 0-1.776-.357-2.486-1.07-.71-.714-1.066-1.547-1.066-2.499v-4.425c-5.116 6.28-12.457 9.421-22.025 9.421-9.189 0-16.412-2.902-21.67-8.707-5.257-5.805-8.075-14.084-8.454-24.837l-.142-4.997.142-5.138c.38-10.373 3.22-18.533 8.526-24.48 5.305-5.949 12.504-8.922 21.598-8.922 8.526 0 15.394 2.76 20.604 8.279v-33.9c0-1.047.355-1.904 1.066-2.57.71-.666 1.539-.999 2.486-.999h18.33zm-121.807 28.988c8.147 0 15.039 1.641 20.675 4.925 5.637 3.283 9.853 7.803 12.647 13.56 2.795 5.758 4.192 12.301 4.192 19.629v3.569c0 1.047-.355 1.927-1.065 2.64-.71.714-1.587 1.071-2.63 1.071h-45.045v.857c.094 4.282 1.09 7.732 2.984 10.35 1.895 2.616 4.594 3.925 8.1 3.925 2.273 0 4.097-.452 5.47-1.356a18.2 18.2 0 003.16-2.673l.748-.825c.853-.951 1.54-1.546 2.06-1.784.522-.238 1.35-.357 2.487-.357h18.616c.852 0 1.587.262 2.202.785.616.523.924 1.166.924 1.927 0 2.475-1.397 5.377-4.192 8.708-2.795 3.33-6.868 6.186-12.22 8.565-5.353 2.38-11.677 3.569-18.971 3.569-11.558 0-20.652-3.117-27.284-9.35-6.631-6.234-10.041-15.298-10.23-27.194v-4.426c.378-11.324 3.883-20.175 10.515-26.551 6.631-6.376 15.583-9.564 26.857-9.564zm-379.828.283c7.768 0 14.092 2.64 18.97 7.922 4.88 5.282 7.319 13.157 7.319 23.625v40.959c0 .951-.332 1.784-.995 2.498-.663.714-1.516 1.07-2.558 1.07H96.93c-1.042 0-1.919-.333-2.63-.999-.71-.666-1.065-1.522-1.065-2.57v-39.958c0-4.378-.924-7.59-2.77-9.636-1.848-2.046-4.335-3.07-7.461-3.07-2.937 0-5.329 1.024-7.176 3.07-1.848 2.046-2.771 5.258-2.771 9.636v9.596a2.819 2.819 0 01-2.815 2.823H51.145a2.819 2.819 0 01-2.815-2.823v-9.596c0-4.378-.947-7.59-2.842-9.636-1.895-2.046-4.358-3.07-7.39-3.07-2.936 0-5.352 1.024-7.246 3.07-1.895 2.046-2.842 5.21-2.842 9.493v9.739a2.819 2.819 0 01-2.815 2.823H5.815A2.819 2.819 0 013 220.073v-37.147c0-1.047.355-1.904 1.066-2.57.71-.666 1.54-.999 2.487-.999h16.483c1.042 0 1.895.333 2.558 1 .663.665.995 1.522.995 2.569v4.853c2.273-2.76 5.21-5.091 8.81-6.994 3.6-1.904 7.673-2.855 12.22-2.855 10.421 0 17.574 4.092 21.458 12.276 2.274-3.616 5.447-6.566 9.52-8.85 4.074-2.284 8.432-3.426 13.074-3.426zm175.637 0c5.4 0 10.207 1.237 14.423 3.711 4.216 2.474 7.531 6.138 9.947 10.992 2.416 4.853 3.624 10.706 3.624 17.558v40.245c0 .951-.332 1.784-.995 2.498-.663.714-1.516 1.07-2.558 1.07h-18.9c-1.041 0-1.918-.333-2.628-.999-.71-.666-1.066-1.522-1.066-2.57v-39.387c0-4.283-1.018-7.566-3.055-9.85s-4.997-3.426-8.881-3.426c-3.79 0-6.774 1.166-8.953 3.497-2.179 2.332-3.268 5.591-3.268 9.779v9.025a2.819 2.819 0 01-2.815 2.823h-20.374a2.819 2.819 0 01-2.816-2.823v-37.147c0-1.047.356-1.904 1.066-2.57.71-.666 1.54-.999 2.487-.999h17.478c1.042 0 1.895.333 2.558 1 .663.665.995 1.522.995 2.569v5.424c2.558-3.14 5.85-5.662 9.876-7.565 4.026-1.904 8.644-2.855 13.855-2.855zm94.213-29.978c1.042 0 1.918.333 2.628 1 .711.665 1.066 1.522 1.066 2.569v12.276c0 1.047-.355 1.904-1.066 2.57-.71.666-1.586.999-2.628.999h-10.09c-3.031 0-5.186.69-6.465 2.07s-1.918 3.497-1.918 6.352v3.569H360.1c1.042 0 1.918.333 2.628 1 .711.665 1.066 1.522 1.066 2.569v12.276c0 1.047-.355 1.904-1.066 2.57-.71.666-1.586.999-2.628.999h-17.052v51.665c0 .951-.332 1.784-.995 2.498-.663.714-1.516 1.07-2.558 1.07h-17.336c-1.042 0-1.919-.333-2.63-.999-.71-.666-1.065-1.522-1.065-2.57v-51.664h-10.658c-1.042 0-1.918-.333-2.628-1-.71-.665-1.066-1.522-1.066-2.569v-12.276c0-1.047.355-1.904 1.066-2.57.71-.666 1.586-.999 2.628-.999h10.658v-4.282c0-9.517 2.747-16.417 8.242-20.7 5.495-4.282 13.357-6.423 23.589-6.423h11.226zm34.107 83.428a2.819 2.819 0 012.815 2.823v16.979a2.819 2.819 0 01-2.815 2.822h-20.34a2.819 2.819 0 01-2.815-2.822v-16.98a2.819 2.819 0 012.815-2.822h20.34zm-153.443 0a2.819 2.819 0 012.816 2.823v16.979a2.819 2.819 0 01-2.816 2.822h-20.382a2.819 2.819 0 01-2.815-2.822v-16.98a2.819 2.819 0 012.815-2.822h20.382zm-171.924 0a2.819 2.819 0 012.815 2.823v16.979a2.819 2.819 0 01-2.815 2.822H51.117a2.819 2.819 0 01-2.815-2.822v-16.98a2.819 2.819 0 012.815-2.822h19.144zm-45.058 0a2.819 2.819 0 012.815 2.823v16.979a2.819 2.819 0 01-2.815 2.822H5.821a2.819 2.819 0 01-2.816-2.822v-16.98a2.819 2.819 0 012.816-2.822h19.382zm138.655-35.904c-3.913 0-6.824 1.246-8.733 3.739-1.909 2.493-3.006 6.232-3.293 11.217l-.143 5.753.143 5.752c.287 5.082 1.384 8.845 3.293 11.29 1.909 2.445 4.82 3.667 8.733 3.667 3.913 0 6.824-1.222 8.732-3.667 1.773-2.27 2.846-5.677 3.22-10.22l.125-1.76c.045-.805.074-1.956.086-3.451v-3.222c-.014-1.745-.05-3.02-.11-3.825l-.028-.317c-.286-4.985-1.384-8.724-3.293-11.217-1.908-2.493-4.82-3.74-8.732-3.74zm395.203 2.214c-4.263 0-7.318 1.26-9.165 3.783-1.848 2.522-2.913 6.019-3.198 10.491l-.142 4.425.142 4.426c.285 4.472 1.35 7.97 3.198 10.491 1.847 2.522 4.902 3.783 9.165 3.783 4.073 0 7.104-1.309 9.094-3.926 1.823-2.398 2.89-5.377 3.202-8.935l.248-3.772c.068-1.187.102-2.067.102-2.637l-.031-1.285a82.518 82.518 0 00-.095-1.76l-.158-2.237c-.19-3.711-1.303-6.78-3.34-9.207-2.036-2.427-5.044-3.64-9.022-3.64zm-165.71-18.333c1.042 0 1.919.357 2.63 1.07.71.714 1.065 1.595 1.065 2.642v5.424c2.652-2.95 5.755-5.21 9.307-6.78 3.553-1.57 7.508-2.356 11.866-2.356h6.394c1.043 0 1.895.333 2.558 1 .663.665.995 1.522.995 2.569v15.56c0 .951-.332 1.784-.995 2.498-.663.713-1.515 1.07-2.558 1.07h-14.352c-3.79 0-6.702 1.047-8.739 3.14-2.037 2.094-3.055 5.045-3.055 8.851v6.028a2.819 2.819 0 01-2.815 2.823h-20.374a2.819 2.819 0 01-2.816-2.823v-37.004c0-1.047.332-1.928.995-2.641.663-.714 1.516-1.071 2.558-1.071h17.336zm78.148 14.42c-3.6 0-6.371 1.261-8.313 3.783-1.793 2.328-2.758 5.528-2.896 9.6l-.017 1.32h22.594v-.285c0-4.568-.995-8.113-2.984-10.635-1.99-2.522-4.784-3.783-8.384-3.783z" fill="#FFF"/></svg>
